icons/templates-24.svg

<?xml version="1.0" encoding="UTF-8"?><svg id="icons" xmlns="http://www.w3.org/2000/svg" viewBox="0 0 24 24"><defs><style>.cls-1{fill:none;}.cls-1,.cls-2{stroke-width:0px;}</style></defs><rect class="cls-1" width="24" height="24"/><path class="cls-2" d="M21.42029,1H2.58508c-.87543,0-1.58508.70966-1.58508,1.58508v18.83752c0,.87115.70624,1.57739,1.57739,1.57739h18.8421c.87286,0,1.58051-.70764,1.58051-1.58057V2.57971c0-.86884-.71088-1.57971-1.57971-1.57971ZM22,21.2121c0,.43512-.35272.7879-.7879.7879H2.7887c-.43561,0-.7887-.35315-.7887-.7887V2.78943c0-.43597.35345-.78943.78949-.78943h18.42181c.43561,0,.7887.35309.7887.7887v18.4234ZM20,6h-11v-1h11v1ZM20,12h-11v-1h11v1ZM20,18h-11v-1h11v1ZM4,4v4h4v-4h-4ZM7,7h-2v-2h2v2ZM4,10v4h4v-4h-4ZM7,13h-2v-2h2v2ZM4,16v4h4v-4h-4ZM7,19h-2v-2h2v2Z"/></svg>

<svg xmlns="http://www.w3.org/2000/svg" viewBox="0 0 24 24"><path stroke-width="0" fill="none" d="M0 0h24v24H0z"/><path d="M21.42 1H2.585C1.71 1 1 1.71 1 2.585v18.838C1 22.293 1.706 23 2.577 23H21.42A1.58 1.58 0 0 0 23 21.42V2.58C23 1.71 22.29 1 21.42 1zM22 21.212a.788.788 0 0 1-.788.788H2.79a.789.789 0 0 1-.79-.789V2.79A.79.79 0 0 1 2.79 2h18.42c.436 0 .789.353.789.789v18.423zM20 6H9V5h11v1zm0 6H9v-1h11v1zm0 6H9v-1h11v1zM4 4v4h4V4H4zm3 3H5V5h2v2zm-3 3v4h4v-4H4zm3 3H5v-2h2v2zm-3 3v4h4v-4H4zm3 3H5v-2h2v2z" stroke-width="0"/></svg>
